dist/svg/u1F4C7.svg

<?xml version="1.0" encoding="UTF-8"?><svg id="a" xmlns="http://www.w3.org/2000/svg" viewBox="0 0 40 40"><rect x="0" y="0" width="40" height="40" transform="translate(40 40) rotate(-180)" fill="none"/><g><path d="M8.728,20.145H31.272c.755,0,1.366,.612,1.366,1.366v13.123c0,.755-.612,1.366-1.366,1.366H8.728c-.755,0-1.366-.612-1.366-1.366v-13.123c0-.755,.612-1.366,1.366-1.366Z" fill="#424f57"/><rect x="6.101" y="16.91" width="27.798" height="6.568" rx="1.054" ry="1.054" fill="#424f57"/><g><path d="M10.797,4H29.203c.687,0,1.243,.557,1.243,1.243v13.089c0,.687-.557,1.243-1.243,1.243H10.797c-.687,0-1.243-.557-1.243-1.243V5.243c0-.687,.557-1.243,1.243-1.243Z" fill="#e5e9ee"/><g><circle cx="15.649" cy="9.467" r="1.995" fill="#64a7ff"/><path d="M15.649,12.329c2.73,0,3.78,1.89,3.78,2.73,0,.84-2.205,1.05-3.78,1.05s-3.78-.21-3.78-1.05c0-.945,1.05-2.73,3.78-2.73Z" fill="#64a7ff"/></g><line x1="27.668" y1="8.902" x2="21.656" y2="8.902" fill="none" stroke="#d0d5da" stroke-linecap="round" stroke-linejoin="round" stroke-width="1.277"/><line x1="27.668" y1="11.788" x2="23.592" y2="11.788" fill="none" stroke="#d0d5da" stroke-linecap="round" stroke-linejoin="round" stroke-width="1.277"/><line x1="27.668" y1="14.674" x2="23.592" y2="14.674" fill="none" stroke="#d0d5da" stroke-linecap="round" stroke-linejoin="round" stroke-width="1.277"/></g><path d="M10.797,20.812H29.203c.687,0,1.243,.557,1.243,1.243v9.928c0,.687-.557,1.243-1.243,1.243H10.797c-.687,0-1.243-.557-1.243-1.243v-9.928c0-.687,.557-1.243,1.243-1.243Z" fill="#afb7c0"/><path d="M10.797,20.812H29.203c.687,0,1.243,.557,1.243,1.243v7.82c0,.687-.557,1.243-1.243,1.243H10.797c-.687,0-1.243-.557-1.243-1.243v-7.82c0-.687,.557-1.243,1.243-1.243Z" fill="#e5e9ee"/><g><line x1="13.943" y1="18.916" x2="13.943" y2="21.471" fill="none" stroke="#8595aa" stroke-linecap="round" stroke-miterlimit="10" stroke-width="1.581"/><line x1="26.057" y1="18.916" x2="26.057" y2="21.471" fill="none" stroke="#8595aa" stroke-linecap="round" stroke-miterlimit="10" stroke-width="1.581"/></g></g></svg>

<svg id="Layer_1" data-name="Layer 1" xmlns="http://www.w3.org/2000/svg" viewBox="0 0 40 40"><defs><style>.cls-1,.cls-5,.cls-7{fill:none;}.cls-2{fill:#424f57;}.cls-3{fill:#e5e9ee;}.cls-4{fill:#64a7ff;}.cls-5{stroke:#d0d5da;stroke-linejoin:round;stroke-width:1.277px;}.cls-5,.cls-7{stroke-linecap:round;}.cls-6{fill:#afb7c0;}.cls-7{stroke:#8595aa;stroke-miterlimit:10;stroke-width:1.581px;}</style></defs><rect class="cls-1" width="40" height="40" transform="translate(40 40) rotate(-180)"/><path class="cls-2" d="M8.728,20.145H31.272a1.366,1.366,0,0,1,1.366,1.366V34.634A1.366,1.366,0,0,1,31.272,36H8.728a1.366,1.366,0,0,1-1.366-1.366V21.511A1.366,1.366,0,0,1,8.728,20.145Z"/><rect class="cls-2" x="6.101" y="16.91" width="27.798" height="6.568" rx="1.054"/><path class="cls-3" d="M10.8,4H29.2a1.244,1.244,0,0,1,1.243,1.243V18.332A1.243,1.243,0,0,1,29.2,19.575H10.8a1.243,1.243,0,0,1-1.243-1.243V5.243A1.244,1.244,0,0,1,10.8,4Z"/><circle class="cls-4" cx="15.649" cy="9.467" r="1.995"/><path class="cls-4" d="M15.649,12.329c2.73,0,3.779,1.89,3.779,2.73s-2.2,1.05-3.779,1.05-3.78-.21-3.78-1.05C11.869,14.114,12.919,12.329,15.649,12.329Z"/><line class="cls-5" x1="27.668" y1="8.902" x2="21.656" y2="8.902"/><line class="cls-5" x1="27.668" y1="11.788" x2="23.592" y2="11.788"/><line class="cls-5" x1="27.668" y1="14.674" x2="23.592" y2="14.674"/><path class="cls-6" d="M10.8,20.812H29.2a1.243,1.243,0,0,1,1.243,1.243v9.928A1.244,1.244,0,0,1,29.2,33.226H10.8a1.244,1.244,0,0,1-1.243-1.243V22.055A1.243,1.243,0,0,1,10.8,20.812Z"/><path class="cls-3" d="M10.8,20.812H29.2a1.243,1.243,0,0,1,1.243,1.243v7.82A1.243,1.243,0,0,1,29.2,31.118H10.8a1.243,1.243,0,0,1-1.243-1.243v-7.82A1.243,1.243,0,0,1,10.8,20.812Z"/><line class="cls-7" x1="13.943" y1="18.916" x2="13.943" y2="21.471"/><line class="cls-7" x1="26.057" y1="18.916" x2="26.057" y2="21.471"/></svg>
